X: 128001
T: JIG
%R: jig
B: James Kerr "Merry Melodies" v.1 p.28 s.0 #1
Z: 2016 John Chambers <jc:trillian.mit.edu>
M: 6/8
L: 1/8
K: A
|:\
vA2vc ue2uf | e2f ecA | A2c e2f | ecA B3 |\
A2c e2f | e2f ecA | a2a b2a | gfg a3 :|
efe cAc | def ecA | GAB ud2uf | ecA Bcd |\
efe cAc | def ecA | GAB dfe | dcB A2 |]

%%sep 1 1 500
%%sep 1 1 500

